X:1
T:Lo, How A Rose E'er Blooming
T:Lo, How A Rose E'er Blooming
T:Das Speyerer Gesangbuch , 1599 Harmonised by Michael Praetorius, 1609
T:German hymn predating 16th century, author unknown Third verse Friedrich Layriz, 1844 Translated Theodore Baker, 1894
C:Das Speyerer Gesangbuch, 1599
Z:Author of original German text unknown (predates 16th century)
%%score [ ( 1 2 ) ( 3 4 ) ]
L:1/8
Q:1/4=95
M:4/4
K:F
V:1 treble nm="Pipe Organ"
V:2 treble 
V:3 bass nm="Pipe Organ"
V:4 bass 
V:1
 [Ac]4 | [Ac]2 [Fc]2 [Fd]2 [Fc]2 | [Ec]4 [DA]4 [DB]4 | A2 G4 F4 E2 | [CF]4 | [Ac]4 | %6
w: ||||||
w: 1.~Lo,|how a rose e'er|bloom- ing, From|ten- der stem hath|sprung!|Of|
w: 2.~I-|sai- ah 'twas fore-|told it, The|rose I have in|mind,|With|
w: 3.~This|flow'r, whose fra- grance|ten- der With|sweet- ness fills the|air,|Dis-|
 [Ac]2 [Fc]2 [Fd]2 [Fc]2 | [Ec]4 [DA]4 [DB]4 | A2 G4 F4 E2 | [CF]6 | [FA]2 | %11
w: |||||
w: Jes- se's lin- eage|com- ing As|men of old have|sung.|It|
w: Ma- ry we be-|hold it, The|vir- gin moth- er|kind.|To|
w: pels with glo- rious|splen- dor The|dark- ness ev- 'ry-|where.|True|
 [DG]2 [CE]2 [CF]2 [=B,D]2 | C6 [Ec]2 | [Gc]2 [Fc]2 [Fd]2 [Fc]2 | [Ec]4 [DA]4 | %15
w: ||||
w: came a flow- 'ret|bright A-|mid the cold of|win- ter,|
w: show God's love a-|right She|bore to men a|Sav- ior,|
w: man, yet ver- y|God, From|sin and death He|saves us,|
"^rit.   .   .   .   .   .   .   .   .   .   .   .   .   .   .   .   .   .   .   .   .   .   .   .   ." [DB]4 | %16
w: |
w: When|
w: When|
w: And|
[Q:1/4=89]"^.2" [FA]2[Q:1/4=86]"^.3" G4[Q:1/4=83][Q:1/4=80]"^.4" F4[Q:1/4=77][Q:1/4=74]"^.6" E2 | %17
w: |
w: half- spent was the|
w: half- spent was the|
w: light- ens ev- 'ry|
[Q:1/4=78] [CF]8 |] %18
w: |
w: night.|
w: night.|
w: load.|
V:2
 x4 | x8 | x12 | C4 D2 A,2 C4 | x4 | x4 | x8 | x12 | C4 D2 A,2 C4 | x6 | x2 | x8 | C6 x2 | x8 | %14
 x8 | x4 | x2 (D2"^.3" E2) F2"^.5" C4 | x8 |] %18
V:3
 [F,C]4 | [F,C]2 [F,A,]2 B,2 [F,A,]2 | [C,G,]4 [D,F,]4 [B,,F,]4 | [F,A,]2 [E,C]2 (B,2 A,4) G,2 | %4
 [F,A,]4 | [F,C]4 | [F,C]2 [F,A,]2 B,2 [F,A,]2 | [C,G,]4 [D,F,]4 [B,,F,]4 | %8
 [F,A,]2 [E,C]2 (B,2 A,4) G,2 | [F,A,]6 | [F,C]2 | [G,B,]2 A,2 [F,A,]2 G,2 | %12
 (([C,E,][D,F,] [E,G,]4)) [C,G,]2 | [E,G,]2 [F,A,]2 [B,,B,]2 [F,A,]2 | [C,G,]4 [D,^F,]4 | %15
 [G,,G,]4 | [A,,C]2 [B,,B,]2 [C,A,]4 [C,G,]4 | [F,,F,A,]8 |] %18
V:4
 x4 | x4 B,2 x2 | x12 | x4 D,4 C,4 | x4 | x4 | x4 B,2 x2 | x12 | x4 D,4 C,4 | x6 | x2 | %11
 x2 A,2 x2 G,2 | x8 | x8 | x8 | x4 | x12 | x8 |] %18

